public/client6.svg

<svg width="106" height="60" viewBox="0 0 106 60" fill="none" xmlns="http://www.w3.org/2000/svg">
<path d="M53.7404 28.3533C53.3224 27.7432 53.1225 27.022 53.1699 26.2962V23.3135C53.1699 22.3992 53.359 21.7044 53.7372 21.2291C54.1154 20.7537 54.7649 20.517 55.6858 20.5191C56.5512 20.5191 57.1654 20.7213 57.5287 21.1259C57.9249 21.6421 58.1176 22.2733 58.0735 22.91V23.6109H56.5255V22.9009C56.531 22.6685 56.516 22.4361 56.4807 22.2061C56.4584 22.0488 56.3804 21.9033 56.2595 21.7934C56.1006 21.675 55.9003 21.6175 55.6987 21.6326C55.4866 21.6176 55.2762 21.6782 55.1089 21.8025C54.9741 21.9243 54.8842 22.0838 54.8525 22.2576C54.8081 22.5011 54.7878 22.7479 54.7916 22.995V26.6147C54.7672 26.964 54.8355 27.3134 54.9904 27.6312C55.0673 27.7387 55.1743 27.824 55.2993 27.8775C55.4243 27.9311 55.5625 27.9508 55.6987 27.9346C55.897 27.9501 56.0937 27.8912 56.2467 27.7708C56.3728 27.6523 56.454 27.4976 56.4775 27.3308C56.5136 27.0907 56.5297 26.8482 56.5255 26.6056V25.8714H58.0735V26.5419C58.117 27.2056 57.9289 27.8644 57.5383 28.4171C57.1825 28.86 56.5768 29.0815 55.6858 29.0815C54.7949 29.0815 54.1218 28.8449 53.7404 28.3533Z" fill="#AFB1B8"/>
<path d="M60.1856 28.3837C59.7946 27.9194 59.5991 27.2428 59.5991 26.3477V23.2104C59.5991 22.3244 59.7946 21.6538 60.1856 21.1987C60.5766 20.7436 61.2304 20.517 62.147 20.5191C63.0572 20.5191 63.7078 20.7456 64.0988 21.1987C64.4898 21.6538 64.6885 22.3244 64.6885 23.2104V26.3477C64.6885 27.2337 64.4898 27.9134 64.0924 28.3806C63.695 28.8479 63.0476 29.0815 62.147 29.0815C61.2464 29.0815 60.5798 28.8449 60.1856 28.3837ZM62.8681 27.6312C63.0081 27.3404 63.0719 27.0219 63.054 26.7027V22.8615C63.072 22.5485 63.0093 22.2361 62.8713 21.9512C62.7928 21.8414 62.6832 21.7547 62.5551 21.7011C62.4271 21.6474 62.2856 21.629 62.147 21.6478C62.0079 21.6294 61.8662 21.6481 61.7377 21.7017C61.6093 21.7553 61.4991 21.8417 61.4195 21.9512C61.2786 22.2353 61.2147 22.5481 61.2336 22.8615V26.7209C61.2141 27.0402 61.278 27.3591 61.4195 27.6494C61.5097 27.7473 61.6211 27.8257 61.746 27.8795C61.8709 27.9332 62.0066 27.961 62.1438 27.961C62.281 27.961 62.4167 27.9332 62.5416 27.8795C62.6665 27.8257 62.7779 27.7473 62.8681 27.6494V27.6312Z" fill="#AFB1B8"/>
<path d="M66.5505 20.6106H68.2171L69.4702 26.3992L70.7522 20.6106H72.3739L72.5374 28.9658H71.3387L71.2105 23.159L69.9734 28.9658H69.0119L67.7299 23.1378L67.6114 28.9658H66.3999L66.5505 20.6106Z" fill="#AFB1B8"/>
<path d="M74.4061 20.6106H77.0021C78.4977 20.6106 79.2455 21.4014 79.2455 22.9831C79.2455 24.498 78.4581 25.2544 76.8835 25.2524H75.9989V28.9658H74.3965L74.4061 20.6106ZM76.6239 24.1814C76.7822 24.2005 76.943 24.1867 77.0952 24.1411C77.2474 24.0956 77.3873 24.0193 77.5052 23.9175C77.689 23.6353 77.77 23.3039 77.736 22.974C77.7444 22.7191 77.7185 22.4642 77.6591 22.2155C77.6362 22.1324 77.5961 22.0545 77.5411 21.9863C77.486 21.918 77.4172 21.8608 77.3386 21.8181C77.1161 21.7171 76.8702 21.6711 76.6239 21.6846H76.0021V24.1814H76.6239Z" fill="#AFB1B8"/>
<path d="M81.5559 20.6106H83.277L85.0428 28.9658H83.5494L83.2 27.0393H81.6649L81.3059 28.9658H79.79L81.5559 20.6106ZM83.027 26.0715L82.4277 22.5644L81.8283 26.0715H83.027Z" fill="#AFB1B8"/>
<path d="M86.469 20.6106H87.5908L89.7381 25.3768V20.6106H91.0681V28.9658H90.0009L87.8407 23.9903V28.9658H86.4658L86.469 20.6106Z" fill="#AFB1B8"/>
<path d="M94.1836 25.7801L92.3984 20.6223H93.9015L94.9912 23.9354L96.0136 20.6223H97.4846L95.7219 25.7801V28.9658H94.1836V25.7801Z" fill="#AFB1B8"/>
<path d="M56.2146 32.6189V33.0558H54.907V36.4509H54.3589V33.0558H53.0449V32.6189H56.2146Z" fill="#AFB1B8"/>
<path d="M60.3141 36.4512H59.891C59.8481 36.4537 59.8057 36.4407 59.7724 36.4148C59.7404 36.3925 59.7159 36.362 59.7019 36.3268L59.3238 35.4166H57.5097L57.1316 36.3268C57.1208 36.3649 57.1011 36.4001 57.0739 36.43C57.0403 36.4554 56.9982 36.4683 56.9553 36.4664H56.5322L58.1347 32.6345H58.6924L60.3141 36.4512ZM57.6604 35.0283H59.1731L58.5321 33.4688C58.4848 33.3509 58.4452 33.2303 58.4135 33.1078C58.3911 33.1806 58.3719 33.2504 58.3526 33.3111L58.295 33.4719L57.6604 35.0283Z" fill="#AFB1B8"/>
<path d="M63.0766 36.0748C63.177 36.0798 63.2775 36.0798 63.3779 36.0748C63.4645 36.0664 63.5503 36.0512 63.6343 36.0293C63.7128 36.0111 63.7899 35.9878 63.865 35.9595C63.9356 35.9322 64.0061 35.8988 64.0798 35.8655V35.0037H63.4388C63.4229 35.0046 63.4071 35.0023 63.3922 34.9971C63.3773 34.9919 63.3637 34.9838 63.3523 34.9734C63.3417 34.9648 63.3334 34.954 63.3279 34.9419C63.3223 34.9299 63.3197 34.9167 63.3202 34.9036V34.6093H64.5637V36.0779C64.4622 36.1466 64.355 36.2075 64.2432 36.2599C64.129 36.3133 64.0099 36.357 63.8875 36.3904C63.7564 36.4269 63.6224 36.4533 63.4869 36.4693C63.3315 36.4856 63.1753 36.4937 63.0189 36.4936C62.7425 36.4958 62.4683 36.4473 62.2113 36.351C61.9714 36.2596 61.7534 36.1234 61.5703 35.9504C61.3919 35.7757 61.2514 35.5695 61.1569 35.3436C61.0559 35.0896 61.0059 34.8199 61.0095 34.5486C61.0061 34.2755 61.055 34.0041 61.1537 33.7475C61.2459 33.5204 61.3866 33.3138 61.5671 33.1406C61.75 32.9682 61.9681 32.833 62.2081 32.7431C62.4825 32.6454 62.7738 32.597 63.067 32.6005C63.2162 32.6003 63.3652 32.6115 63.5125 32.6339C63.6428 32.654 63.7706 32.6865 63.8939 32.731C64.006 32.7709 64.1134 32.8217 64.2144 32.8827C64.3126 32.9426 64.4058 33.0095 64.4932 33.083L64.3394 33.3197C64.3273 33.3413 64.3094 33.3594 64.2874 33.3722C64.2654 33.3851 64.2402 33.392 64.2144 33.3925C64.1789 33.3914 64.1445 33.3809 64.115 33.3621C64.067 33.3379 64.0157 33.3075 63.958 33.2711C63.8898 33.2307 63.818 33.1961 63.7433 33.1679C63.6477 33.1317 63.5491 33.1032 63.4484 33.083C63.3142 33.0596 63.1779 33.0484 63.0414 33.0496C62.8299 33.0474 62.62 33.0834 62.4228 33.1558C62.2445 33.2235 62.0838 33.3271 61.9517 33.4592C61.8189 33.597 61.7174 33.7592 61.6536 33.9356C61.5105 34.3507 61.5105 34.7981 61.6536 35.2131C61.7238 35.3933 61.833 35.5576 61.9741 35.6955C62.1056 35.827 62.2651 35.9304 62.4421 35.999C62.6458 36.0652 62.8619 36.091 63.0766 36.0748Z" fill="#AFB1B8"/>
<path d="M68.1851 36.014H69.9351V36.4509H67.6499V32.6189H68.198L68.1851 36.014Z" fill="#AFB1B8"/>
<path d="M71.7556 36.4509H71.2075V32.6189H71.7556V36.4509Z" fill="#AFB1B8"/>
<path d="M73.7939 32.6371C73.8265 32.6547 73.8548 32.6785 73.8772 32.7069L76.22 35.5955C76.2168 35.5501 76.2168 35.5045 76.22 35.459C76.22 35.4165 76.22 35.374 76.22 35.3346V32.6038H76.6975V36.4512H76.4219C76.3811 36.4543 76.3401 36.447 76.3033 36.43C76.27 36.4109 76.2407 36.3862 76.2168 36.3571L73.8772 33.4716C73.8772 33.5171 73.8772 33.5595 73.8772 33.602C73.8772 33.6445 73.8772 33.684 73.8772 33.7204V36.4512H73.4189V32.6189H73.7042C73.7351 32.619 73.7657 32.6252 73.7939 32.6371Z" fill="#AFB1B8"/>
<path d="M80.7323 32.6189V33.0406H78.7901V34.3059H80.3637V34.7124H78.7901V36.0202H80.7323V36.4419H78.2261V32.6189H80.7323Z" fill="#AFB1B8"/>
<path d="M23.3035 8.95391L47.6385 15.4953V38.4173L23.3035 31.879V8.95391ZM21.7427 7V32.9925L49.196 40.3743V14.3848L21.7427 7Z" fill="#AFB1B8"/>
<path d="M36.4565 52.4402L9 45.0522V19.0625L36.4565 26.4474V52.4402Z" fill="#AFB1B8"/>
<path d="M22.1978 8.65958L46.2155 15.1189L36.0014 24.7912L11.9806 18.3288L22.1978 8.65958ZM21.7427 7L9 19.0631L36.4565 26.4478L49.196 14.3847L21.7427 7Z" fill="#AFB1B8"/>
<path d="M38.0015 50.978L49.1962 40.3774L38.0015 37.3647V50.978Z" fill="#AFB1B8"/>
</svg>

<svg xmlns="http://www.w3.org/2000/svg" width="106" height="60" fill="none"><path fill="#AFB1B8" d="M53.74 28.353a3.259 3.259 0 0 1-.57-2.057v-2.982c0-.915.189-1.61.567-2.085.378-.475 1.028-.712 1.949-.71.865 0 1.48.202 1.843.607.396.516.589 1.147.544 1.784v.7h-1.547v-.71a3.961 3.961 0 0 0-.045-.694.69.69 0 0 0-.221-.413.836.836 0 0 0-.561-.16.886.886 0 0 0-.59.17.81.81 0 0 0-.257.455c-.044.243-.064.49-.06.737v3.62c-.025.349.044.698.198 1.016a.734.734 0 0 0 .31.247.78.78 0 0 0 .399.057.788.788 0 0 0 .548-.164.748.748 0 0 0 .23-.44c.037-.24.053-.483.049-.725v-.735h1.547v.67a2.914 2.914 0 0 1-.535 1.876c-.355.443-.961.664-1.852.664-.891 0-1.564-.236-1.946-.728ZM60.186 28.384c-.391-.465-.587-1.141-.587-2.036V23.21c0-.886.196-1.556.587-2.011.39-.455 1.044-.682 1.961-.68.91 0 1.56.227 1.952.68.39.455.59 1.125.59 2.011v3.138c0 .886-.2 1.565-.597 2.033-.397.467-1.044.7-1.945.7-.9 0-1.567-.236-1.961-.697Zm2.682-.753c.14-.29.204-.61.186-.928v-3.841a1.843 1.843 0 0 0-.183-.91.738.738 0 0 0-.316-.25.784.784 0 0 0-.408-.054.794.794 0 0 0-.41.054.75.75 0 0 0-.318.25c-.14.283-.204.596-.185.91v3.859c-.02.32.044.638.185.928a.96.96 0 0 0 .327.23 1.008 1.008 0 0 0 .796 0 .96.96 0 0 0 .326-.23v-.018ZM66.55 20.61h1.667l1.253 5.79 1.282-5.79h1.622l.163 8.356H71.34l-.129-5.807-1.237 5.807h-.961l-1.282-5.828-.119 5.828H66.4l.15-8.355ZM74.406 20.61h2.596c1.496 0 2.244.791 2.244 2.373 0 1.515-.788 2.271-2.362 2.27h-.885v3.713h-1.602l.01-8.355Zm2.218 3.571c.158.02.319.006.471-.04.152-.045.292-.122.41-.223.184-.283.265-.614.231-.944a2.859 2.859 0 0 0-.077-.759.633.633 0 0 0-.118-.229.672.672 0 0 0-.202-.168 1.529 1.529 0 0 0-.715-.133h-.622v2.496h.622ZM81.556 20.61h1.721l1.766 8.356h-1.494l-.349-1.927h-1.535l-.36 1.927H79.79l1.766-8.355Zm1.471 5.462-.6-3.508-.599 3.508h1.199ZM86.469 20.61h1.122l2.147 4.767V20.61h1.33v8.355h-1.067l-2.16-4.976v4.976h-1.375l.003-8.355ZM94.184 25.78l-1.786-5.158h1.504l1.09 3.313 1.022-3.313h1.47l-1.762 5.158v3.186h-1.538V25.78ZM56.215 32.619v.437h-1.308v3.395h-.548v-3.395h-1.314v-.437h3.17ZM60.314 36.451h-.423a.177.177 0 0 1-.119-.036.196.196 0 0 1-.07-.088l-.378-.91H57.51l-.378.91a.258.258 0 0 1-.058.103.183.183 0 0 1-.119.036h-.423l1.603-3.831h.557l1.622 3.816Zm-2.654-1.423h1.513l-.64-1.56a2.964 2.964 0 0 1-.12-.36l-.06.203-.058.16-.635 1.557ZM63.077 36.075c.1.005.2.005.3 0 .087-.009.173-.024.257-.046a1.82 1.82 0 0 0 .231-.07c.07-.027.141-.06.215-.094v-.861h-.641a.12.12 0 0 1-.087-.03.087.087 0 0 1-.032-.07v-.295h1.244v1.469a2.355 2.355 0 0 1-.676.312 2.655 2.655 0 0 1-.401.08 4.459 4.459 0 0 1-.468.024 2.252 2.252 0 0 1-.808-.143 1.937 1.937 0 0 1-.64-.4 1.849 1.849 0 0 1-.414-.607 2.076 2.076 0 0 1-.147-.795 2.155 2.155 0 0 1 .144-.801c.092-.228.233-.434.413-.607.183-.173.401-.308.641-.398.275-.098.566-.146.859-.143.15 0 .298.011.446.034.13.02.258.053.38.097.113.04.22.09.321.152.099.06.192.127.28.2l-.155.237a.14.14 0 0 1-.052.052.15.15 0 0 1-.073.02.196.196 0 0 1-.099-.03 1.923 1.923 0 0 1-.157-.09 1.372 1.372 0 0 0-.215-.104 1.873 1.873 0 0 0-.295-.085 2.255 2.255 0 0 0-.407-.033 1.743 1.743 0 0 0-.618.106 1.337 1.337 0 0 0-.471.303c-.133.138-.235.3-.298.477a1.954 1.954 0 0 0 0 1.277c.07.18.179.345.32.483.132.131.291.234.468.303.204.066.42.092.635.076ZM68.185 36.014h1.75v.437H67.65v-3.832h.548l-.013 3.395ZM71.756 36.45h-.549V32.62h.549v3.832ZM73.794 32.637c.032.018.06.041.083.07l2.343 2.889a.972.972 0 0 1 0-.137v-2.855h.478v3.847h-.276a.24.24 0 0 1-.119-.021.314.314 0 0 1-.086-.073l-2.34-2.885v2.979h-.458V32.62h.285c.031 0 .062.006.09.018ZM80.732 32.619v.422H78.79v1.265h1.574v.406H78.79v1.308h1.942v.422h-2.506v-3.823h2.506ZM23.303 8.954l24.335 6.541v22.922L23.305 31.88V8.954ZM21.744 7v25.992l27.453 7.382v-25.99L21.743 7Z"/><path fill="#AFB1B8" d="M36.456 52.44 9 45.052v-25.99l27.456 7.385V52.44Z"/><path fill="#AFB1B8" d="m22.198 8.66 24.017 6.459-10.214 9.672-24.02-6.462 10.217-9.67ZM21.743 7 9 19.063l27.456 7.385 12.74-12.063L21.743 7ZM38.002 50.978l11.194-10.6-11.194-3.013v13.613Z"/></svg>
